svgs/openscan.svg

<svg xmlns="http://www.w3.org/2000/svg" viewBox="0 0 192 192"><path d="M166.905 175.5H25.095a8.622 8.622 0 0 1-8.595-8.595V25.095a8.622 8.622 0 0 1 8.595-8.595h141.81a8.622 8.622 0 0 1 8.595 8.595v141.81a8.622 8.622 0 0 1-8.595 8.595Z" fill="none" stroke="#000" stroke-width="8" stroke-linecap="round" stroke-linejoin="round"/><path d="M133.717 114.564V77.436l24.594 37.128V77.436M34.424 110.495a10.383 10.383 0 0 0 9.103 4.067h5.496a9.279 9.279 0 0 0 8.025-4.645 9.27 9.27 0 0 0 1.236-4.637A9.269 9.269 0 0 0 49.023 96H42.95a9.275 9.275 0 0 1-8.024-4.645 9.271 9.271 0 0 1-1.237-4.637 9.275 9.275 0 0 1 4.627-8.035 9.265 9.265 0 0 1 4.634-1.247h5.497a10.384 10.384 0 0 1 9.102 4.067m34.632 20.61v.152a12.305 12.305 0 0 1-6.147 10.651 12.3 12.3 0 0 1-16.799-4.5 12.305 12.305 0 0 1-1.647-6.149V89.735a12.298 12.298 0 1 1 24.595 0v.153m7.766 24.564 12.321-37.014m11.81 37.124-11.81-37.124m7.859 24.705h-16.083" fill="none" stroke="#000" stroke-width="8" stroke-linecap="round" stroke-linejoin="round"/></svg>

<svg
    xmlns="http://www.w3.org/2000/svg"
    viewBox="0 0 192 192"
    id="vector">
    <path
        id="path"
        d="M 166.905 175.5 L 25.095 175.5 C 22.818 175.493 20.634 174.585 19.025 172.975 C 17.415 171.366 16.507 169.182 16.5 166.905 L 16.5 25.095 C 16.507 22.818 17.415 20.634 19.025 19.025 C 20.634 17.415 22.818 16.507 25.095 16.5 L 166.905 16.5 C 169.182 16.507 171.366 17.415 172.975 19.025 C 174.585 20.634 175.493 22.818 175.5 25.095 L 175.5 166.905 C 175.493 169.182 174.585 171.366 172.975 172.975 C 171.366 174.585 169.182 175.493 166.905 175.5 Z"
        fill="none"
        stroke="#000000"
        stroke-width="8"
        stroke-linecap="round"
        stroke-linejoin="round"/>
    <path
        id="path_1"
        d="M 133.717 114.564 L 133.717 77.436 L 158.311 114.564 L 158.311 77.436"
        fill="none"
        stroke="#000000"
        stroke-width="8"
        stroke-linecap="round"
        stroke-linejoin="round"/>
    <path
        id="path_2"
        d="M 34.424 110.495 C 35.479 111.882 36.865 112.982 38.456 113.692 C 40.046 114.403 41.79 114.702 43.527 114.562 L 49.023 114.562 C 50.651 114.56 52.249 114.13 53.658 113.315 C 55.066 112.5 56.236 111.328 57.048 109.917 C 57.86 108.507 58.286 106.907 58.284 105.28 C 58.287 102.822 57.312 100.462 55.575 98.722 C 53.839 96.983 51.481 96.003 49.023 96 L 42.95 96 C 41.323 95.998 39.724 95.568 38.316 94.753 C 36.907 93.937 35.738 92.765 34.926 91.355 C 34.114 89.945 33.687 88.345 33.689 86.718 C 33.687 85.09 34.114 83.491 34.926 82.08 C 35.738 80.67 36.907 79.498 38.316 78.683 C 39.724 77.868 41.323 77.437 42.95 77.436 L 48.447 77.436 C 50.183 77.296 51.927 77.595 53.518 78.306 C 55.108 79.016 56.495 80.116 57.549 81.503 M 92.181 102.113 L 92.181 102.265 C 92.181 104.423 91.613 106.544 90.534 108.414 C 89.455 110.283 87.903 111.836 86.034 112.916 C 84.165 113.995 82.044 114.564 79.885 114.564 C 77.727 114.564 75.606 113.996 73.736 112.917 C 71.867 111.838 70.314 110.285 69.235 108.416 C 68.156 106.546 67.588 104.425 67.588 102.267 L 67.588 89.735 C 67.588 87.577 68.156 85.456 69.235 83.587 C 70.314 81.717 71.867 80.165 73.736 79.085 C 75.606 78.006 77.727 77.438 79.885 77.438 C 83.145 77.438 86.275 78.734 88.581 81.04 C 90.886 83.345 92.183 86.475 92.183 89.735 L 92.183 89.888 M 99.949 114.452 L 112.27 77.438 M 124.08 114.562 L 112.27 77.438 M 120.129 102.143 L 104.046 102.143"
        fill="none"
        stroke="#000000"
        stroke-width="8"
        stroke-linecap="round"
        stroke-linejoin="round"/>
</svg>
